app/public/dtpr-icons/rdua.svg

<svg width="36" height="36" viewBox="0 0 36 36" fill="none" xmlns="http://www.w3.org/2000/svg">
<path fill-rule="evenodd" clip-rule="evenodd" d="M18 29.5557C17.509 29.5557 17.111 29.1577 17.111 28.6667V25.9997C17.111 25.5097 17.509 25.1117 18 25.1117C18.491 25.1117 18.889 25.5097 18.889 25.9997V28.6667C18.889 29.1577 18.491 29.5557 18 29.5557Z" fill="black"/>
<path fill-rule="evenodd" clip-rule="evenodd" d="M17.1099 27.0669H15.5189C15.1189 27.0669 14.9229 27.5469 15.2079 27.8219L17.6879 30.3109C17.8649 30.4889 18.1409 30.4889 18.3189 30.3109L20.7989 27.8309C21.0739 27.5469 20.8789 27.0669 20.4789 27.0669H18.8879" fill="black"/>
<path fill-rule="evenodd" clip-rule="evenodd" d="M16.6665 23.3335C16.4665 23.3335 16.2705 23.2655 16.1115 23.1385L11.6665 19.5835C11.2835 19.2765 11.2215 18.7165 11.5285 18.3335C11.8345 17.9505 12.3945 17.8885 12.7775 18.1945L16.4645 21.1445L23.0385 11.2845C23.3105 10.8765 23.8625 10.7655 24.2705 11.0385C24.6795 11.3105 24.7905 11.8625 24.5175 12.2705L17.4065 22.9375C17.2685 23.1455 17.0495 23.2845 16.8035 23.3225C16.7575 23.3305 16.7115 23.3335 16.6665 23.3335Z" fill="black"/>
<path fill-rule="evenodd" clip-rule="evenodd" d="M18 10.8887C17.509 10.8887 17.111 10.4907 17.111 9.99969V6.44469C17.111 5.95369 17.509 5.55569 18 5.55569C18.491 5.55569 18.889 5.95369 18.889 6.44469V9.99969C18.889 10.4907 18.491 10.8887 18 10.8887Z" fill="black"/>
<rect x="2" y="2" width="32" height="32" rx="16" stroke="black" stroke-width="2"/>
</svg>

<svg xmlns="http://www.w3.org/2000/svg" width="36" height="36" fill="none"><path fill="#000" fill-rule="evenodd" d="M18 29.556a.89.89 0 0 1-.889-.89V26a.889.889 0 0 1 1.778 0v2.667a.89.89 0 0 1-.889.889" clip-rule="evenodd"/><path fill="#000" fill-rule="evenodd" d="M17.11 27.067h-1.591a.44.44 0 0 0-.311.755l2.48 2.489a.44.44 0 0 0 .63 0l2.48-2.48a.45.45 0 0 0-.32-.764h-1.59M16.667 23.334a.9.9 0 0 1-.556-.195l-4.445-3.555a.89.89 0 0 1 1.111-1.39l3.688 2.95 6.573-9.86a.888.888 0 1 1 1.48.986l-7.111 10.668a.89.89 0 0 1-.74.396M18 10.889a.89.89 0 0 1-.889-.89V6.446a.889.889 0 1 1 1.778 0V10a.89.89 0 0 1-.889.889" clip-rule="evenodd"/><rect width="32" height="32" x="2" y="2" stroke="#000" stroke-width="2" rx="16"/></svg>
